!!!!SEGMENT: pl-kk--kk-i-122--001_anonim--alleluia-virga-iesse.krn
!!!cenid: 18xx:2547
!!!COM: Anonim
!!!COM-rismid: pe30004985
!!!CDT:
!!!CNT:
!!!OTL: Alleluia Virga Iesse
!!!OMV: 001
!!!PDT:
!!!AGN: Sacred
!!!SMS-siglum: PL-Kk
!!!SMS-shelfmark: Kk.I.122
!!!SMS-shelfwork: W
!!!SMS-variant: Baſso PL-Kk KK.I.122:0013
!!!SMS-altvar: Baſsô PL-Kk KK.I.122:0002
!!!NIFC-rismid: 1001153680
!!!URL-scan: http://repozytorium.nifc.pl/skany/pl-kk-nut--i-122
!!!ONB-nifc: UWAGA: w zbiorze 5 Alleluia Virga Iesse. Numeracja plików zgodna ze źródłową.
**kern	**text	**kern	**text	**kern	**text	**kern	**text
*part4	*part4	*part3	*part3	*part2	*part2	*part1	*part1
*staff4	*staff4	*staff3	*staff3	*staff2	*staff2	*staff1	*staff1
*I"Baſso	*	*I"Tenore	*	*I"Alto	*	*I"Canto	*
*I'B	*	*I'T	*	*I'A	*	*I'S	*
*clefF4	*	*clefC4	*	*clefC3	*	*clefC1	*
*k[]	*	*k[]	*	*k[]	*	*k[]	*
*C:	*	*C:	*	*C:	*	*C:	*
*M3/2	*	*M3/2	*	*M3/2	*	*M3/2	*
*2\right	*	*2\right	*	*2\right	*	*2\right	*
=1	=1	=1	=1	=1	=1	=1	=1
!LO:TX:a:t=moderato	!	!LO:TX:a:t=moderato	!	!LO:TX:a:t=moderato	!	!LO:TX:a:t=N&colon;1	!
!LO:TX:a:t=N&colon;1	!	!LO:TX:a:t=Nro 1	!	!LO:TX:a:t=N&colon;1	!	!LO:TX:t=P:problem:all2\right:global	!
2C/	Al-	2G/	Al-	2e\	Al-	2cc\	Al-
2E/	-le-	2G/	-le-	2e\	-le-	2cc\	-le-
2G\	-lu-	2G/	-lu-	2d\	-lu-	2b\	-lu-
=2	=2	=2	=2	=2	=2	=2	=2
2c\	-ia	2G/	-ia	1e	-ia	1cc	-ia
2G\	.	2r	.	.	.	.	.
2E\	al-	2c\	al-	2g\	al-	2ee\	al-
=3	=3	=3	=3	=3	=3	=3	=3
2F\	-le-	2A/	-le-	2f\	-le-	2dd\	-le-
2G\	.	2G/	.	2e\	.	2cc\	.
2GG/	-lu-	2G/	-lu-	2d\	-lu-	2b\	-lu-
=4	=4	=4	=4	=4	=4	=4	=4
2C/	-ia.	2G/	-ia.	2e\	-ia:	2cc\	-ia.
2G\	Vir-	2G/	Vir-	2d\	Vir-	2b\	Vir-
2F\	-ga	2B/	-ga	2g\	-ga	2dd\	-ga
=5	=5	=5	=5	=5	=5	=5	=5
2E\	Jeſ-	1G	Jeſ-	2g\	Jeſ-	2cc\	Jeſ-
2D\	.	.	.	2f\	.	2b\	.
2C\	-se	2G/	-se	2e\	-se	2cc\	-se
=6	=6	=6	=6	=6	=6	=6	=6
2F\	flo-	2A/	flo-	2f\	flo-	2dd\	flo-
2G\	.	2G/	.	2e\	.	2cc\	.
2GG/	-ru-	2G/	-ru-	2d\	-ru-	2b\	-ru-
=7	=7	=7	=7	=7	=7	=7	=7
!LO:LB:g=original	!	!LO:LB:g=original	!	!LO:LB:g=original	!	!LO:LB:g=original	!
2C/	-it.	2G/	-it.	2e\	-it,	2cc\	-it.
2c\	Vir-	2G/	Vir-	2g\	Vir-	2ee\	Vir-
2c\	-go	2G/	-go	2g\	-go	2ee\	-go
=8	=8	=8	=8	=8	=8	=8	=8
2B\	De-	2G/	De-	2g\	De-	2dd\	De-
2A\	-um	2A/	-um	2f#X\	-um	2cc\	-um
2G\	et	2B/	et	2d\	et	2b\	et
=9	=9	=9	=9	=9	=9	=9	=9
2A\	ho-	2A\	ho-	2d\	ho-	2cc\	ho-
2G\	-mi-	2B\	-mi-	2d\	-mi-	2b\	-mi-
2F#X\	-nem	2c\	-nem	2d\	-nem	2a\	-nem
=10	=10	=10	=10	=10	=10	=10	=10
!	!	!LO:N:vis=1.	!	!	!	!	!
2G\	ge-	[y1d	ge-	2g\	ge-	2b\	ge-
2.D/	.	.	.	2.f#X\	.	2.a\	.
.	.	4dyy\]yy	.	.	.	.	.
4D/	-nu-	4d\	-nu-	4f#\	-nu-	4a\	-nu-
=11	=11	=11	=11	=11	=11	=11	=11
2GG/	-it:	2d\	-it:	2d\	-it:	2g\	-it:
2C/	pa-	2c\	pa-	2e\	pa-	2g\	pa-
2E/	-cem	2c\	-cem	2g\	-cem	2b-X\	-cem
=12	=12	=12	=12	=12	=12	=12	=12
2Fn\	De-	1c	De-	2f\	De-	2a\	De-
2C/	.	.	.	2e\	.	2g\	.
2F\	-us	2c\	-us	2f\	-us	2a\	-us
=13	=13	=13	=13	=13	=13	=13	=13
!LO:LB:g=original	!	!LO:LB:g=original	!	!LO:LB:g=original	!	!	!
1F	red-	2c\	red-	1d	red-	2a\	red-
.	.	2B\	.	.	.	2bn\	.
2F#X\	-di-	2A\	-di-	2d\	-di-	2cc\	-di-
=14	=14	=14	=14	=14	=14	=14	=14
!	!	!	!	!	!	!LO:LB:g=original	!
2G\	-dit	2G/	-dit	2d\	-dit	2b\	-dit,
2GG/	in	4d\	in	4d\	in	4b\	in
.	.	4c\	.	4e\	.	4cc\	.
2G\	se	2B\	se	2f\	se	2dd\	se
=15	=15	=15	=15	=15	=15	=15	=15
2E\	re-	2G\	re-	2e\	re-	2cc\	re-
2D\	.	2B\	.	2f\	.	2dd\	.
2C\	-con-	2c\	-con-	2g\	-con-	2ee\	-con-
=16	=16	=16	=16	=16	=16	=16	=16
2.BB/	-ci-	2.G/	-ci-	2.f\	-ci-	2.dd\	-ci-
4BB/	-li-	4G/	-li-	4f\	-li-	4dd\	-li-
2C/	-ans	2G/	-ans	2e\	-ans	2cc\	-ans
=17	=17	=17	=17	=17	=17	=17	=17
2F\	i-	2A/	i-	2f\	i-	2dd\	i-
2G\	-ma	2G/	-ma	2e\	-ma	2cc\	-ma
2GG/	sum-	2G/	sum-	2d\	sum-	2b\	sum-
=18	=18	=18	=18	=18	=18	=18	=18
2C/	-mis	2G/	-mis	2e\	-mis	2cc\	-mis
2c\	al-	2G/	al-	2e\	al-	2cc\	al-
2G\	-le-	2G/	-le-	2d\	-le-	2b\	-le-
=19	=19	=19	=19	=19	=19	=19	=19
!LO:LB:g=original	!	!LO:LB:g=original	!	!LO:LB:g=original	!	!	!
2B\	-lu-	2G/	-lu-	1f	-lu-	1dd	-lu-
2G\	.	2B/	.	.	.	.	.
2c\	-ia	2G/	-ia	2e\	-ia	2cc\	-ia
=20	=20	=20	=20	=20	=20	=20	=20
!	!	!	!	!	!	!LO:LB:g=original	!
2F\	al-	2A/	al-	2f\	al-	2dd\	al-
2G\	-le-	2G/	-le-	2e\	-le-	2cc\	-le-
2GG/	-lu-	2G/	-lu-	2d\	-lu-	2b\	-lu-
=21	=21	=21	=21	=21	=21	=21	=21
!LO:TX:t=P:problem:na kresce podwójna fermata	!	!LO:TX:t=P:problem:na kresce podwójna fermata	!	!	!	!LO:TX:t=P:problem:na kresce podwójna fermata	!
1.C	-ia	1.G	-ia	1.e	-ia	1.cc	-ia.
==	==	==	==	==	==	==	==
*-	*-	*-	*-	*-	*-	*-	*-
!!!system-decoration: [(s1,s2,s3,s4)]
!!!ENC: Kamil Watkowski
!!!END: 2021-08-05
